static/assets/img/icons/theme/shopping/bag-1.svg

<svg height="24" viewBox="0 0 24 24" width="24" xmlns="http://www.w3.org/2000/svg"><g fill="none" fill-rule="evenodd"><path d="m0 0h24v24h-24z" opacity="0"/><g fill="#000"><path d="m14 9v-1c0-1.1045695-.8954305-2-2-2s-2 .8954305-2 2v1h-2v-1c0-2.209139 1.790861-4 4-4s4 1.790861 4 4v1zm0 0v-1c0-1.1045695-.8954305-2-2-2s-2 .8954305-2 2v1h-2v-1c0-2.209139 1.790861-4 4-4s4 1.790861 4 4v1z" fill-rule="nonzero" opacity=".3"/><path d="m6.84712709 9h10.30574581c.4888392 0 .9060293.35341304.9863939.83560101l1.4726002 8.83560099c.1815901 1.0895407-.5544492 2.1199957-1.6439899 2.3015858-.1086628.0181105-.2186362.0272122-.3287979.0272122h-11.27815836c-1.1045695 0-2-.8954305-2-2 0-.1101617.00910168-.2201351.02721216-.328798l1.47260016-8.83560099c.08036467-.48218797.49755478-.83560101.98639393-.83560101z"/></g></g></svg>

<svg width="24px" height="24px" viewBox="0 0 24 24" version="1.1" xmlns="http://www.w3.org/2000/svg" xmlns:xlink="http://www.w3.org/1999/xlink">
    <title>Icon For Bag#1</title>
    <g stroke="none" stroke-width="1" fill="none" fill-rule="evenodd">
        <rect opacity="0" x="0" y="0" width="24" height="24"></rect>
        <path d="M14,9 L14,8 C14,6.8954305 13.1045695,6 12,6 C10.8954305,6 10,6.8954305 10,8 L10,9 L8,9 L8,8 C8,5.790861 9.790861,4 12,4 C14.209139,4 16,5.790861 16,8 L16,9 L14,9 Z M14,9 L14,8 C14,6.8954305 13.1045695,6 12,6 C10.8954305,6 10,6.8954305 10,8 L10,9 L8,9 L8,8 C8,5.790861 9.790861,4 12,4 C14.209139,4 16,5.790861 16,8 L16,9 L14,9 Z" fill="#000000" fill-rule="nonzero" opacity="0.3"></path>
        <path d="M6.84712709,9 L17.1528729,9 C17.6417121,9 18.0589022,9.35341304 18.1392668,9.83560101 L19.611867,18.671202 C19.7934571,19.7607427 19.0574178,20.7911977 17.9678771,20.9727878 C17.8592143,20.9908983 17.7492409,21 17.6390792,21 L6.36092084,21 C5.25635134,21 4.36092084,20.1045695 4.36092084,19 C4.36092084,18.8898383 4.37002252,18.7798649 4.388133,18.671202 L5.86073316,9.83560101 C5.94109783,9.35341304 6.35828794,9 6.84712709,9 Z" fill="#000000"></path>
    </g>
</svg>
